svgs/vieshow_cinemas.svg

<svg width="192" height="192" viewBox="0 0 192 192" fill="none" xmlns="http://www.w3.org/2000/svg">
<path d="M80.6763 123.845L70.6853 149.275C68.7337 154.242 61.9716 154.242 60.02 149.275L22.434 53.6109C20.8852 49.6687 23.6727 45.3511 27.7667 45.3511H49.8361M80.6763 123.845L90.6674 149.275C92.619 154.242 99.381 154.242 101.333 149.275L111.324 123.845M80.6763 123.845L96 84.8437M80.6763 123.845L49.8361 45.3511M111.324 123.845L121.315 149.275C123.266 154.242 130.028 154.242 131.98 149.275L169.566 53.6109C171.115 49.6687 168.327 45.3511 164.233 45.3511H142.164M111.324 123.845L96 84.8437M111.324 123.845L142.164 45.3511M96 84.8437L79.2358 42.1756M96 84.8437L112.764 42.1756M79.2358 42.1756H51.8863C50.3124 42.1756 49.2407 43.8355 49.8361 45.3511M79.2358 42.1756C78.6403 40.6599 79.712 39 81.286 39H110.714C112.288 39 113.36 40.6599 112.764 42.1756M112.764 42.1756H140.114C141.688 42.1756 142.759 43.8355 142.164 45.3511" stroke="black" stroke-width="12" stroke-linejoin="round"/>
</svg>

<svg xmlns="http://www.w3.org/2000/svg" width="192" height="192" fill="none" viewBox="0 0 192 192"><path stroke="#000" stroke-linejoin="round" stroke-width="12" d="m80.676 123.845-9.99 25.43a5.68 5.68 0 0 1-10.666 0L22.434 53.611c-1.549-3.942 1.239-8.26 5.333-8.26h22.07m30.84 78.494 9.99 25.43a5.68 5.68 0 0 0 10.666 0l9.991-25.43m-30.648 0L96 84.844m-15.324 39.001-30.84-78.494m61.488 78.494 9.991 25.43a5.68 5.68 0 0 0 10.665 0l37.586-95.664c1.549-3.942-1.239-8.26-5.333-8.26h-22.069m-30.84 78.494L96 84.844m15.324 39.001 30.84-78.494M96 84.844 79.236 42.176M96 84.844l16.764-42.668m-33.528 0h-27.35c-1.574 0-2.645 1.66-2.05 3.175m29.4-3.175C78.64 40.66 79.712 39 81.286 39h29.428c1.574 0 2.646 1.66 2.05 3.176m0 0h27.35c1.574 0 2.645 1.66 2.05 3.175"/></svg>
